X: 1403
T: Col McBain   #2
R: reel
%S: s:2 b:14(7+7)
N: F.O'Neill
B: O'Neill's 1850 #1403
Z: Bob Safranek, rjs@gsp.org
M: C|
L: 1/8
K: Em
"^A"[|] (EF) \
| GBEF GEBE | FADE FDAD |1 GBEF GEBE | FADF E2 :|2 G2(GF) GBdB | AFDF E2 "^B"|] (EF) | G2(GF) GBdB |
| ABAG FAAF | Eee^d e2(ef) | gefd Beef || gfge dedB | ABAG FGAF | Beed BcdB | AFDF E2 |]
